app/assets/images/features/events/ko/yv-logo-white.svg

<?xml version="1.0" encoding="UTF-8" standalone="no"?>
<svg width="109px" height="33px" viewBox="0 0 109 33" version="1.1" xmlns="http://www.w3.org/2000/svg" xmlns:xlink="http://www.w3.org/1999/xlink">
    <!-- Generator: Sketch 3.8.3 (29802) - http://www.bohemiancoding.com/sketch -->
    <title>yv logo korean copy</title>
    <desc>Created with Sketch.</desc>
    <defs></defs>
    <g id="yv-events-english" stroke="none" stroke-width="1" fill="none" fill-rule="evenodd">
        <g id="yv-logo-korean-copy" fill="#FFFFFF">
            <g id="YouVersion-+-EVENTS-+-yv-logo">
                <g id="YouVersion-+-EVENTS" transform="translate(36.000000, 22.000000)">
                    <path d="M7.115,9.7 L7.115,0.96 L6.225,0.96 L6.225,9.7 L7.115,9.7 Z M0.215,4.7 C0.215,6.44 0.915,7.8 2.465,7.8 C4.015,7.8 4.705,6.44 4.705,4.71 C4.705,2.97 4.015,1.62 2.465,1.62 C0.915,1.62 0.215,2.97 0.215,4.7 L0.215,4.7 Z M3.825,4.71 C3.825,6.06 3.365,7.03 2.465,7.03 C1.575,7.03 1.115,6.06 1.115,4.71 C1.115,3.36 1.575,2.38 2.465,2.38 C3.365,2.38 3.825,3.36 3.825,4.71 L3.825,4.71 Z M17.455,5.77 L17.455,4.04 L18.425,4.04 L18.425,7.23 L19.265,7.23 L19.265,1.14 L18.425,1.14 L18.425,3.31 L17.455,3.31 L17.455,1.61 L16.565,1.61 L16.565,2.97 L14.815,2.97 L14.815,1.62 L13.925,1.62 L13.925,5.77 L17.455,5.77 Z M21.165,9.44 L21.165,8.73 L16.045,8.73 L16.045,6.71 L15.155,6.71 L15.155,9.44 L21.165,9.44 Z M20.935,7.46 L20.935,0.96 L20.085,0.96 L20.085,7.46 L20.935,7.46 Z M16.565,5.06 L14.815,5.06 L14.815,3.69 L16.565,3.69 L16.565,5.06 Z M33.865,4.38 L33.865,3.68 L29.035,3.68 L29.035,2.51 L34.065,2.51 L34.065,1.79 L28.155,1.79 L28.155,6.35 L34.145,6.35 L34.145,5.62 L29.035,5.62 L29.035,4.38 L33.865,4.38 Z M35.095,8.59 L35.095,7.87 L27.205,7.87 L27.205,8.59 L35.095,8.59 Z" id="이벤트"></path>
                </g>
                <g id="yv-logo">
                    <polygon id="Fill-1" points="11.31856 0.805784615 7.16041185 7.42075897 3.04465259 0.805784615 -8.07407405e-05 0.805784615 5.83747481 9.85398974 5.83747481 15.744041 8.44176741 15.744041 8.44176741 9.78998974 14.279323 0.805784615"></polygon>
                    <path d="M17.9328819,6.50358974 C15.895793,6.50358974 14.5938485,8.12533333 14.5938485,10.1101538 C14.5938485,12.1163077 16.0011596,13.7593846 17.974867,13.7593846 C20.0329485,13.7593846 21.334893,12.1372308 21.334893,10.1528205 C21.334893,8.14666667 19.9275819,6.50358974 17.9328819,6.50358974 M17.9328819,15.9997949 C14.5518633,15.9997949 12.0533411,13.3753846 12.0533411,10.1528205 C12.0533411,6.90892308 14.5732596,4.2414359 17.974867,4.2414359 C21.3768781,4.2414359 23.8758041,6.86625641 23.8758041,10.1101538 C23.8758041,13.3327179 21.3558856,15.9997949 17.9328819,15.9997949" id="Fill-2"></path>
                    <path d="M32.9054044,4.47634872 L35.4463156,4.47634872 L35.4463156,15.744041 L32.9054044,15.744041 L32.9054044,13.9938872 C32.1912526,15.0609641 31.1626156,15.9787077 29.4404156,15.9787077 C26.9418933,15.9787077 25.492597,14.2716308 25.492597,11.6468103 L25.492597,4.47634872 L28.0335081,4.47634872 L28.0335081,10.8779897 C28.0335081,12.6281436 28.8942044,13.6312205 30.4068822,13.6312205 C31.8763637,13.6312205 32.9054044,12.5858872 32.9054044,10.8357333 L32.9054044,4.47634872 Z" id="Fill-4"></path>
                    <polygon id="Fill-6" points="48.5288185 0.805702564 51.3216407 0.805702564 45.2107778 15.8506256 42.9427704 15.8506256 36.8319074 0.805702564 39.6881111 0.805702564 44.1187593 12.2867282"></polygon>
                    <path d="M58.5665881,9.32049231 C58.3982437,7.65567179 57.4321807,6.35433846 55.7523696,6.35433846 C54.1985141,6.35433846 53.1068993,7.57033846 52.875577,9.32049231 L58.5665881,9.32049231 Z M56.0882511,13.8874667 C57.3276215,13.8874667 58.2093104,13.4177231 59.091403,12.5426462 L60.5822807,13.8874667 C59.5326511,15.1678769 58.0833548,15.9998769 56.0466696,15.9998769 C52.8335919,15.9998769 50.3556585,13.6314667 50.3556585,10.1315692 C50.3556585,6.88767179 52.6026733,4.24151795 55.7733622,4.24151795 C59.3013289,4.24151795 61.086103,7.05833846 61.086103,10.3235692 C61.086103,10.5582359 61.0651104,10.7715692 61.0445215,11.0275692 L52.8965696,11.0275692 C53.1908696,12.8630564 54.4508289,13.8874667 56.0882511,13.8874667 L56.0882511,13.8874667 Z" id="Fill-8"></path>
                    <path d="M65.3487296,15.744 L62.8078185,15.744 L62.8078185,4.47630769 L65.3487296,4.47630769 L65.3487296,7.01579487 C66.0418889,5.32964103 67.3228407,4.17764103 69.2759593,4.26297436 L69.2759593,6.99446154 L69.1286074,6.99446154 C66.9029889,6.99446154 65.3487296,8.46687179 65.3487296,11.4547692 L65.3487296,15.744 Z" id="Fill-10"></path>
                    <path d="M74.8614019,15.9575385 C73.2865537,15.9575385 71.5433611,15.3811282 70.15785,14.2717949 L71.29145,12.521641 C72.4884315,13.4389744 73.7903759,13.9087179 74.9243796,13.9087179 C76.0163981,13.9087179 76.6465796,13.4389744 76.6465796,12.6923077 L76.6465796,12.649641 C76.6465796,11.7749744 75.4705907,11.4758974 74.1682426,11.0705641 C72.5308204,10.6008205 70.7032537,9.91774359 70.7032537,7.76266667 L70.7032537,7.72 C70.7032537,5.58625641 72.4464463,4.28410256 74.6510722,4.28410256 C76.0373907,4.28410256 77.5492611,4.77476923 78.72525,5.56451282 L77.7172019,7.4 C76.6465796,6.73825641 75.5121722,6.33292308 74.5884981,6.33292308 C73.6014426,6.33292308 73.0346426,6.80266667 73.0346426,7.464 L73.0346426,7.50625641 C73.0346426,8.31774359 74.2312204,8.65907692 75.5335685,9.08574359 C77.1504019,9.59774359 78.9771611,10.3448205 78.9771611,12.3723077 L78.9771611,12.4149744 C78.9771611,14.7837949 77.1713944,15.9575385 74.8614019,15.9575385" id="Fill-12"></path>
                    <path d="M80.8666963,4.47630769 L83.4076074,4.47630769 L83.4076074,15.744 L80.8666963,15.744 L80.8666963,4.47630769 Z M80.762137,0.29374359 L83.4923852,0.29374359 L83.4923852,2.74748718 L80.762137,2.74748718 L80.762137,0.29374359 Z" id="Fill-14"></path>
                    <path d="M91.1566193,6.50358974 C89.1195304,6.50358974 87.8175859,8.12533333 87.8175859,10.1101538 C87.8175859,12.1163077 89.224897,13.7593846 91.1986044,13.7593846 C93.2566859,13.7593846 94.5586304,12.1372308 94.5586304,10.1528205 C94.5586304,8.14666667 93.1513193,6.50358974 91.1566193,6.50358974 M91.1566193,15.9997949 C87.7756007,15.9997949 85.2770785,13.3753846 85.2770785,10.1528205 C85.2770785,6.90892308 87.796997,4.2414359 91.1986044,4.2414359 C94.6006156,4.2414359 97.0995415,6.86625641 97.0995415,10.1101538 C97.0995415,13.3327179 94.579623,15.9997949 91.1566193,15.9997949" id="Fill-16"></path>
                    <path d="M101.383241,15.744 L98.8419267,15.744 L98.8419267,4.47630769 L101.383241,4.47630769 L101.383241,6.22646154 C102.097393,5.15897436 103.12603,4.24164103 104.847827,4.24164103 C107.346753,4.24164103 108.795645,5.94871795 108.795645,8.57353846 L108.795645,15.744 L106.254734,15.744 L106.254734,9.34194872 C106.254734,7.59220513 105.394038,6.58912821 103.881764,6.58912821 C102.412282,6.58912821 101.383241,7.63446154 101.383241,9.38461538 L101.383241,15.744 Z" id="Fill-17"></path>
                </g>
            </g>
        </g>
    </g>
</svg>

<svg viewBox="0 0 109 33" xmlns="http://www.w3.org/2000/svg"><g fill="#fff" fill-rule="evenodd"><path d="m7.115 9.7v-8.74h-.89v8.74h.89m-6.9-5c0 1.74.7 3.1 2.25 3.1 1.55 0 2.24-1.36 2.24-3.09 0-1.74-.69-3.09-2.24-3.09-1.55 0-2.25 1.35-2.25 3.08m3.61.01c0 1.35-.46 2.32-1.36 2.32-.89 0-1.35-.97-1.35-2.32 0-1.35.46-2.33 1.35-2.33.9 0 1.36.98 1.36 2.33m13.63 1.06v-1.73h.97v3.19h.84v-6.09h-.84v2.17h-.97v-1.7h-.89v1.36h-1.75v-1.35h-.89v4.15h3.53m3.71 3.67v-.71h-5.12v-2.02h-.89v2.73h6.01m-.23-1.98v-6.5h-.85v6.5h.85m-4.37-2.4h-1.75v-1.37h1.75v1.37m17.3-.68v-.7h-4.83v-1.17h5.03v-.72h-5.91v4.56h5.99v-.73h-5.11v-1.24h4.83m1.23 4.21v-.72h-7.89v.72h7.89" transform="translate(36 22)"/><g><path d="m11.319.806l-4.159 6.615-4.115-6.615h-3.045l5.837 9.05v5.89h2.605v-5.954l5.837-8.984z"/><path d="m17.933 6.504c-2.037 0-3.339 1.622-3.339 3.607 0 2.01 1.407 3.649 3.381 3.649 2.058 0 3.36-1.622 3.36-3.607 0-2.01-1.407-3.649-3.402-3.649m0 9.496c-3.381 0-5.88-2.624-5.88-5.847 0-3.244 2.52-5.911 5.922-5.911 3.402 0 5.901 2.625 5.901 5.869 0 3.223-2.52 5.89-5.943 5.89"/><path d="m32.905 4.476h2.541v11.268h-2.541v-1.75c-.714 1.067-1.743 1.985-3.465 1.985-2.499 0-3.948-1.707-3.948-4.332v-7.17h2.541v6.402c0 1.75.861 2.753 2.373 2.753 1.469 0 2.499-1.045 2.499-2.795v-6.359"/><path d="m48.529.806h2.791l-6.11 15.05h-2.267l-6.111-15.05h2.856l4.432 11.481z"/><path d="m58.57 9.32c-.168-1.665-1.134-2.966-2.814-2.966-1.554 0-2.645 1.216-2.877 2.966h5.691m-2.478 4.567c1.239 0 2.121-.47 3-1.345l1.491 1.345c-1.05 1.28-2.499 2.112-4.536 2.112-3.213 0-5.691-2.368-5.691-5.868 0-3.244 2.247-5.89 5.418-5.89 3.528 0 5.313 2.817 5.313 6.082 0 .235-.021.448-.042.704h-8.148c.294 1.835 1.554 2.86 3.192 2.86"/><path d="m65.35 15.744h-2.541v-11.268h2.541v2.539c.693-1.686 1.974-2.838 3.927-2.753v2.731h-.147c-2.226 0-3.78 1.472-3.78 4.46v4.289"/><path d="m74.861 15.958c-1.575 0-3.318-.576-4.704-1.686l1.134-1.75c1.197.917 2.499 1.387 3.633 1.387 1.092 0 1.722-.47 1.722-1.216v-.043c0-.875-1.176-1.174-2.478-1.579-1.637-.47-3.465-1.153-3.465-3.308v-.043c0-2.134 1.743-3.436 3.948-3.436 1.386 0 2.898.491 4.074 1.28l-1.01 1.835c-1.071-.662-2.205-1.067-3.129-1.067-.987 0-1.554.47-1.554 1.131v.042c0 .811 1.197 1.153 2.499 1.579 1.617.512 3.444 1.259 3.444 3.287v.043c0 2.369-1.806 3.543-4.116 3.543"/><path d="m80.87 4.476h2.541v11.268h-2.541v-11.268m-.105-4.183h2.73v2.454h-2.73v-2.454"/><path d="m91.16 6.504c-2.037 0-3.339 1.622-3.339 3.607 0 2.01 1.407 3.649 3.381 3.649 2.058 0 3.36-1.622 3.36-3.607 0-2.01-1.407-3.649-3.402-3.649m0 9.496c-3.381 0-5.88-2.624-5.88-5.847 0-3.244 2.52-5.911 5.922-5.911 3.402 0 5.901 2.625 5.901 5.869 0 3.223-2.52 5.89-5.943 5.89"/><path d="m101.38 15.744h-2.541v-11.268h2.541v1.75c.714-1.067 1.743-1.985 3.465-1.985 2.499 0 3.948 1.707 3.948 4.332v7.17h-2.541v-6.402c0-1.75-.861-2.753-2.373-2.753-1.469 0-2.499 1.045-2.499 2.795v6.359"/></g></g></svg>
